launcher/android/assets/skins/day/svg/db_pressed.svg

<svg enable-background="new 0 0 88.00 76.00" height="76" viewBox="0 0 88 76" width="88" xmlns="http://www.w3.org/2000/svg" xmlns:xlink="http://www.w3.org/1999/xlink"><linearGradient id="a" gradientTransform="matrix(0 1 -1 0 .228961 -.778777)" gradientUnits="objectBoundingBox" x1=".503869" x2="2.05368" y1="-.274908" y2="-.274908"><stop offset=".316279" stop-color="#f0f1ec" stop-opacity=".592157"/><stop offset=".800003" stop-color="#fff" stop-opacity="0"/></linearGradient><linearGradient id="b" gradientTransform="matrix(-.986419426397 .164245898658 -.164245898658 -.986419426397 1.939424360163 .714189860202)" gradientUnits="objectBoundingBox" x1=".940186" x2="2.52462" y1=".437275" y2=".437275"><stop offset=".274419" stop-color="#f0f1ec" stop-opacity=".501961"/><stop offset=".562791" stop-color="#fff" stop-opacity="0"/></linearGradient><radialGradient id="c" cx="44.4603" cy="64.0774" gradientUnits="userSpaceOnUse" r="25.8326"><stop offset="0" stop-opacity=".25098"/><stop offset="1" stop-color="#111" stop-opacity=".117647"/></radialGradient><g stroke-linejoin="round"><path d="m13.4792 2.43747h61c6.0751 0 11 4.92487 11 11.00003v49.6667c0 6.0751-4.9249 11-11 11h-61c-6.07517 0-11.00004-4.9249-11.00004-11v-49.6667c0-6.07516 4.92487-11.00003 11.00004-11.00003z" fill="#b2ae5a" stroke="#000"/><path d="m73.499 4.92154h-58.1111c-3.034 0-6.8082.84714-9.5754 4.64534h.06589c.06588 35.59882 18.16601 35.71982 38.54311 35.71982 20.377 0 37.6866-.3444 38.016-35.80359v.02792c-1.4495-2.06667-3.3602-4.18919-8.9385-4.58949z" fill="url(#a)" stroke-width=".2"/><path d="m73.2684 4.87499-16.9875 1.86187c-3.0339 0-19.1508-1.78743-21.918 2.01077l-8.0819 11.91597c4.3585 7.0054 19.6778-2.0853 22.0497-3.8354 23.631-3.0163 33.5468 28.0675 33.8762-7.39164v.02792c-1.4495-2.06666-3.3602-4.18918-8.9385-4.58949z" fill="url(#b)" stroke-width=".2"/><path d="m13.7291 5.27099h60.7499c4.4183 0 8 3.58172 8 8.00001v49.9998c0 4.4183-3.5817 8-8 8h-60.7499c-4.41824 0-7.99996-3.5817-7.99996-8v-49.9998c0-4.41829 3.58172-8.00001 7.99996-8.00001z" fill="none" stroke="#ffd23f" stroke-width="6"/><path d="m20.1087 10.0446 43.7466 3.2488v5.3762l-43.7466-3.2488z" fill="#757576" stroke="#757576"/><path d="m22.97 57.3813 46.7416 9.2743-3.761 4.1179-46.7416-9.2743z" fill="url(#c)" stroke-width=".2"/><path d="m20.6174 25.4685 43.379 4.6029-.1938 5.6592-43.1852-4.8858z" fill="#deb73a" stroke="#deb73a"/><path d="m20.9807 38.8384 43.1653 6.0789v5.3762l-43.1653-6.0788z" fill="#757576" stroke="#757576"/><path d="m21.4894 52.3498 42.5839 7.2809v5.3763l-42.5839-7.281z" fill="#757576" stroke="#757576"/><path d="m63.8995 30.1657 3.6819-1.7921v5.5649l-3.5907 1.684z" fill="#e7c456" stroke="#e7c456"/><path d="m64.3277 44.955 3.5971-1.8393v5.2348l-3.5971 1.8392z" fill="#92929a" stroke="#92929a"/><path d="m64.037 59.6689 3.3064-2.4045v5.2348l-3.3064 2.4045z" fill="#92929a" stroke="#92929a"/><path d="m24.2658 23.9446 43.1975 4.0699-4.1937 2.104-42.8261-4.8103z" fill="#c4a02e" stroke="#c4a02e"/><path d="m63.928 13.3717 3.9968-.5677v5.2347l-3.9968.5678z" fill="#92929a" stroke="#92929a"/><g fill="#5e5e60" stroke="#5e5e60"><path d="m24.5198 9.34212 43.0734 3.31028-4.2391.5568-43.0734-3.31028z"/><path d="m24.725 36.9456 42.6935 5.9882-3.5429 1.7182-42.6935-5.9882z"/><path d="m24.9733 49.9196 42.0876 7.1654-3.2482 2.521-42.0876-7.1654z"/></g></g></svg>

﻿<?xml version="1.0" encoding="utf-8"?>
<!DOCTYPE svg PUBLIC "-//W3C//DTD SVG 1.1//EN" "http://www.w3.org/Graphics/SVG/1.1/DTD/svg11.dtd">
<svg xmlns="http://www.w3.org/2000/svg" xmlns:xlink="http://www.w3.org/1999/xlink" version="1.1" baseProfile="full" width="88" height="76" viewBox="0 0 88.00 76.00" enable-background="new 0 0 88.00 76.00" xml:space="preserve">
	<path fill="#B2AE5A" fill-opacity="1" stroke-linejoin="round" stroke="#000000" stroke-opacity="1" d="M 13.4792,2.43747L 74.4792,2.43747C 80.5543,2.43747 85.4792,7.36234 85.4792,13.4375L 85.4792,63.1042C 85.4792,69.1793 80.5543,74.1042 74.4792,74.1042L 13.4792,74.1042C 7.40403,74.1042 2.47916,69.1793 2.47916,63.1042L 2.47916,13.4375C 2.47916,7.36234 7.40403,2.43747 13.4792,2.43747 Z "/>
	<linearGradient id="SVGID_Fill1_" gradientUnits="objectBoundingBox" x1="0.503869" y1="-0.274908" x2="2.05368" y2="-0.274908" gradientTransform="rotate(90.000000 0.503869 -0.274908)">
		<stop offset="0.316279" stop-color="#F0F1EC" stop-opacity="0.592157"/>
		<stop offset="0.800003" stop-color="#FFFFFF" stop-opacity="0"/>
	</linearGradient>
	<path fill="url(#SVGID_Fill1_)" stroke-width="0.2" stroke-linejoin="round" d="M 73.499,4.92154L 15.3879,4.92154C 12.3539,4.92154 8.5797,5.76868 5.8125,9.56688L 5.87839,9.56688C 5.94427,45.1657 24.0444,45.2867 44.4215,45.2867C 64.7985,45.2867 82.1081,44.9423 82.4375,9.48311L 82.4375,9.51103C 80.988,7.44436 79.0773,5.32184 73.499,4.92154 Z "/>
	<linearGradient id="SVGID_Fill2_" gradientUnits="objectBoundingBox" x1="0.940186" y1="0.437275" x2="2.52462" y2="0.437275" gradientTransform="rotate(170.546570 0.940186 0.437275)">
		<stop offset="0.274419" stop-color="#F0F1EC" stop-opacity="0.501961"/>
		<stop offset="0.562791" stop-color="#FFFFFF" stop-opacity="0"/>
	</linearGradient>
	<path fill="url(#SVGID_Fill2_)" stroke-width="0.2" stroke-linejoin="round" d="M 73.2684,4.87499L 56.2809,6.73686C 53.247,6.73686 37.1301,4.94943 34.3629,8.74763L 26.281,20.6636C 30.6395,27.669 45.9588,18.5783 48.3307,16.8282C 71.9617,13.8119 81.8775,44.8957 82.2069,9.43656L 82.2069,9.46448C 80.7574,7.39782 78.8467,5.2753 73.2684,4.87499 Z "/>
	<path fill="none" stroke-width="6" stroke-linejoin="round" stroke="#FFD23F" stroke-opacity="1" d="M 13.7291,5.27099L 74.479,5.27099C 78.8973,5.27099 82.479,8.85271 82.479,13.271L 82.479,63.2708C 82.479,67.6891 78.8973,71.2708 74.479,71.2708L 13.7291,71.2708C 9.31086,71.2708 5.72914,67.6891 5.72914,63.2708L 5.72914,13.271C 5.72914,8.85271 9.31086,5.27099 13.7291,5.27099 Z "/>
	<path fill="#757576" fill-opacity="1" stroke-linejoin="round" stroke="#757576" stroke-opacity="1" d="M 20.1087,10.0446L 63.8553,13.2934L 63.8553,18.6696L 20.1087,15.4208L 20.1087,10.0446 Z "/>
	<radialGradient id="SVGID_Fill3_" cx="44.4603" cy="64.0774" r="25.8326" gradientUnits="userSpaceOnUse">
		<stop offset="0" stop-color="#000000" stop-opacity="0.25098"/>
		<stop offset="1" stop-color="#111111" stop-opacity="0.117647"/>
	</radialGradient>
	<path fill="url(#SVGID_Fill3_)" stroke-width="0.2" stroke-linejoin="round" d="M 22.97,57.3813L 69.7116,66.6556L 65.9506,70.7735L 19.209,61.4992L 22.97,57.3813 Z "/>
	<path fill="#DEB73A" fill-opacity="1" stroke-linejoin="round" stroke="#DEB73A" stroke-opacity="1" d="M 20.6174,25.4685L 63.9964,30.0714L 63.8026,35.7306L 20.6174,30.8448L 20.6174,25.4685 Z "/>
	<path fill="#757576" fill-opacity="1" stroke-linejoin="round" stroke="#757576" stroke-opacity="1" d="M 20.9807,38.8384L 64.146,44.9173L 64.146,50.2935L 20.9807,44.2147L 20.9807,38.8384 Z "/>
	<path fill="#757576" fill-opacity="1" stroke-linejoin="round" stroke="#757576" stroke-opacity="1" d="M 21.4894,52.3498L 64.0733,59.6307L 64.0733,65.007L 21.4894,57.726L 21.4894,52.3498 Z "/>
	<path fill="#E7C456" fill-opacity="1" stroke-linejoin="round" stroke="#E7C456" stroke-opacity="1" d="M 63.8995,30.1657L 67.5814,28.3736L 67.5814,33.9385L 63.9907,35.6225L 63.8995,30.1657 Z "/>
	<path fill="#92929A" fill-opacity="1" stroke-linejoin="round" stroke="#92929A" stroke-opacity="1" d="M 64.3277,44.955L 67.9248,43.1157L 67.9248,48.3505L 64.3277,50.1897L 64.3277,44.955 Z "/>
	<path fill="#92929A" fill-opacity="1" stroke-linejoin="round" stroke="#92929A" stroke-opacity="1" d="M 64.037,59.6689L 67.3434,57.2644L 67.3434,62.4992L 64.037,64.9037L 64.037,59.6689 Z "/>
	<path fill="#C4A02E" fill-opacity="1" stroke-linejoin="round" stroke="#C4A02E" stroke-opacity="1" d="M 24.2658,23.9446L 67.4633,28.0145L 63.2696,30.1185L 20.4435,25.3082L 24.2658,23.9446 Z "/>
	<path fill="#92929A" fill-opacity="1" stroke-linejoin="round" stroke="#92929A" stroke-opacity="1" d="M 63.928,13.3717L 67.9248,12.804L 67.9248,18.0387L 63.928,18.6065L 63.928,13.3717 Z "/>
	<path fill="#5E5E60" fill-opacity="1" stroke-linejoin="round" stroke="#5E5E60" stroke-opacity="1" d="M 24.5198,9.34212L 67.5932,12.6524L 63.3541,13.2092L 20.2807,9.89892L 24.5198,9.34212 Z "/>
	<path fill="#5E5E60" fill-opacity="1" stroke-linejoin="round" stroke="#5E5E60" stroke-opacity="1" d="M 24.725,36.9456L 67.4185,42.9338L 63.8756,44.652L 21.1821,38.6638L 24.725,36.9456 Z "/>
	<path fill="#5E5E60" fill-opacity="1" stroke-linejoin="round" stroke="#5E5E60" stroke-opacity="1" d="M 24.9733,49.9196L 67.0609,57.085L 63.8127,59.606L 21.7251,52.4406L 24.9733,49.9196 Z "/>
</svg>
